icons/shape.svg

<svg width="24" height="24" viewBox="0 0 24 24" fill="none" xmlns="http://www.w3.org/2000/svg">
<path fill-rule="evenodd" clip-rule="evenodd" d="M2 3C2 2.44772 2.44772 2 3 2H7C7.55228 2 8 2.44772 8 3V4H16V3C16 2.44772 16.4477 2 17 2H21C21.5523 2 22 2.44772 22 3V7C22 7.55228 21.5523 8 21 8H20V16H21C21.5523 16 22 16.4477 22 17V21C22 21.5523 21.5523 22 21 22H17C16.4477 22 16 21.5523 16 21V20H8V21C8 21.5523 7.55228 22 7 22H3C2.44772 22 2 21.5523 2 21V17C2 16.4477 2.44772 16 3 16H4V8H3C2.44772 8 2 7.55228 2 7V3ZM6 8V16H7C7.55228 16 8 16.4477 8 17V18H16V17C16 16.4477 16.4477 16 17 16H18V8H17C16.4477 8 16 7.55228 16 7V6H8V7C8 7.55228 7.55228 8 7 8H6ZM6 4H4V6H6V4ZM20 6V4H18V6H20ZM18 20H20V18H18V20ZM4 18V20H6V18H4Z" fill="black"/>
</svg>

<svg
  width="24"
  height="24"
  viewBox="0 0 24 24"
  xmlns="http://www.w3.org/2000/svg"
>
  <path
    fill-rule="evenodd"
    clip-rule="evenodd"
    d="M2 3a1 1 0 0 1 1-1h4a1 1 0 0 1 1 1v1h8V3a1 1 0 0 1 1-1h4a1 1 0 0 1 1 1v4a1 1 0 0 1-1 1h-1v8h1a1 1 0 0 1 1 1v4a1 1 0 0 1-1 1h-4a1 1 0 0 1-1-1v-1H8v1a1 1 0 0 1-1 1H3a1 1 0 0 1-1-1v-4a1 1 0 0 1 1-1h1V8H3a1 1 0 0 1-1-1V3zm4 5v8h1a1 1 0 0 1 1 1v1h8v-1a1 1 0 0 1 1-1h1V8h-1a1 1 0 0 1-1-1V6H8v1a1 1 0 0 1-1 1H6zm0-4H4v2h2V4zm14 2V4h-2v2h2zm-2 14h2v-2h-2v2zM4 18v2h2v-2H4z"
  />
</svg>
